!!!!SEGMENT: pl-wn--mus-ii-22-393_sowinski-wojciech--la-varsovienne.krn
!!!cenid: 18xx:3583
!!!COM: Sowiński, Wojciech
!!!COM-rismID: pe30008543
!!!CDT: ~1803-1880/03/05
!!!CNT:
!!!OTL: La Varsovienne
!!!PDT:
!!!AGN:
!!!SMS-siglum: PL-Wn
!!!SMS-shelfmark: Mus.II.22.393
!!!SMS-shelfwork: W
!!!SMS-variant:
!!!SMS-altvar:
!!!NIFC-rismSourceID:
!!!NIFC-rismChildID:
!!!NIFC-islandoraID: none
!!!URL-pdf-islandora:
!!!URL-scan: https://polona.pl/item/la-varsovienne,NDUyMTgzMjA/1 @EN{Scan on Polona} @PL{Skany w portalu Polona}
!!!ONB-nifc:
!!!OMD: Tempo di marcia.
!!!AIN: 1 coro 1 piano 1 vox
!!!key: B-
**kern	**kern	**dynam	**kern	**text	**kern	**text	**dynam
*part3	*part3	*part3	*part2	*part2	*part1	*part1	*part1
*staff4	*staff3	*	*staff2	*staff2	*staff1	*staff1	*
*I"PIANO	*I"PIANO	*	*I"CORO	*	*I"[voce solo]	*	*
*Ipiano	*Ipiano	*	*Icoro	*	*Ivox	*	*
*ICklav	*ICklav	*	*ICvox	*	*ICvox	*	*
*clefF4	*clefG2	*	*clefG2	*	*clefG2	*	*
*k[b-e-]	*k[b-e-]	*	*k[b-e-]	*	*k[b-e-]	*	*
*B-:	*B-:	*	*B-:	*	*B-:	*	*
*M4/4	*M4/4	*	*M4/4	*	*M4/4	*	*
*met(c)	*met(c)	*	*met(c)	*	*met(c)	*	*
=1	=1	=1	=1	=1	=1	=1	=1
*xywh-#2:342,342,1503,663	*xywh-#2:342,342,1503,663	*	*	*	*	*	*
*tremolo	*ped	*	*	*	*	*	*
!LO:TX:b:t=tremolo.	!LO:TX:a:t=Tempo di marcia.	!LO:DY:b:rj	!	!	!	!	!
16GG/LL 16BB-	4G^^>/ 4g	p	1ryy	.	1ryy	.	.
16D/	.	.	.	.	.	.	.
16GG/ 16BB-	.	.	.	.	.	.	.
16D/	.	.	.	.	.	.	.
16GG/ 16BB-	8.G^^>/L 8.g	.	.	.	.	.	.
16D/	.	.	.	.	.	.	.
16GG/ 16BB-	.	.	.	.	.	.	.
16D/JJ	16G'>/Jk 16g	.	.	.	.	.	.
*Xtremolo	*	*	*	*	*	*	*
4GG`/ 4BB-	4G'>/ 4g	.	.	.	.	.	.
4r	4B-^^>/ 4b-	.	.	.	.	.	.
=2	=2	=2	=2	=2	=2	=2	=2
*tremolo	*	*	*	*	*	*	*
!	!	!LO:DY:b=2	!	!	!	!	!
16GG/LL 16BB-	4G^^>/ 4g	sf	1ryy	.	1ryy	.	.
16D/	.	.	.	.	.	.	.
16GG/ 16BB-	.	.	.	.	.	.	.
16D/	.	.	.	.	.	.	.
16GG/ 16BB-	8.G/L 8.g	<	.	.	.	.	.
16D/	.	.	.	.	.	.	.
16GG/ 16BB-	.	.	.	.	.	.	.
16D/JJ	16G'>/Jk 16g	.	.	.	.	.	.
*Xtremolo	*	*	*	*	*	*	*
4GG`/ 4BB-	4G'>/ 4g	.	.	.	.	.	.
4r	4d^^>/ 4dd	[[	.	.	.	.	.
=3	=3	=3	=3	=3	=3	=3	=3
*tremolo	*	*	*	*	*	*	*
16GG\LL	4B-/ 4g	.	1ryy	.	1ryy	.	.
16G\	.	.	.	.	.	.	.
16GG\	.	.	.	.	.	.	.
16G\	.	.	.	.	.	.	.
!	!	!LO:DY:b:rj	!	!	!	!	!
16GG\	8.g^^>\L 8.b- 8.gg	sf	.	.	.	.	.
16G\	.	.	.	.	.	.	.
16GG\	.	.	.	.	.	.	.
16G\	16g\Jk 16b- 16gg	.	.	.	.	.	.
*	*Xped	*	*	*	*	*	*
16GG\	4g\ 4b- 4gg	.	.	.	.	.	.
16G\	.	.	.	.	.	.	.
16GG\	.	.	.	.	.	.	.
16G\JJ	.	.	.	.	.	.	.
*Xtremolo	*	*	*	*	*	*	*
16AA\LL	8.f^^>\L 8.cc 8.ff	.	.	.	.	.	.
16A\	.	.	.	.	.	.	.
16AA\	.	.	.	.	.	.	.
16A\JJ	16f\Jk 16cc 16ee-	sf	.	.	.	.	.
=4	=4	=4	=4	=4	=4	=4	=4
*tremolo	*ped	*	*	*	*	*	*
!	!LO:TX:a:t=ten.	!	!	!	!	!	!
16BB-\LL	[>2f\ [>2b- [>2dd	.	1ryy	.	1ryy	.	.
16B-\	.	.	.	.	.	.	.
16BB-\	.	.	.	.	.	.	.
16B-\	.	.	.	.	.	.	.
16BB-\	.	.	.	.	.	.	.
16B-\	.	.	.	.	.	.	.
16BB-\	.	.	.	.	.	.	.
16B-\JJ	.	.	.	.	.	.	.
*Xtremolo	*	*	*	*	*	*	*
4BB-/	4f\] 4b-] 4dd]	>	.	.	.	.	.
*	*Xped	*	*	*	*	*	*
4r	4r	]]	.	.	.	.	.
=5	=5	=5	=5	=5	=5	=5	=5
!	!LO:TX:a:t=segno	!	!	!	!	!	!
4DD/ 4D	4A/ 4c 4d 4f#X	sf >	1ryy	.	1ryy	.	.
8.DD/L 8.D	8.A/L 8.c 8.d 8.f#	.	.	.	.	.	.
16DD/Jk 16D	16A/Jk 16c 16d 16f#	.	.	.	.	.	.
4DD/ 4D	4A/ 4c 4d 4f#	.	.	.	.	.	.
4DD/ 4D	4A/ 4c 4d 4f#	]]	.	.	.	.	.
!!LO:LB:g=original
=6	=6	=6	=6	=6	=6	=6	=6
*xywh-#2:434,1120,1332,238	*xywh-#2:434,1120,1332,238	*	*	*	*xywh-#2:387,993,1420,151	*	*
4r	4r	.	4ryy	.	8.d/	Za-	.
.	.	.	.	.	16d/	-ja-	.
=7	=7	=7	=7	=7	=7	=7	=7
!	!	!LO:DY:b:rj	!	!	!	!	!
4GG'>\ 4G	4B-/ 4d	p	1ryy	.	4d/	-śnia-	.
4GG'>\ 4G	4B-/ 4d	.	.	.	4d/	-ła	.
4GG'>\ 4G	4.B-^</ 4.e-	.	.	.	(4.e-/	noc	.
4GG'>\ 4G	.	.	.	.	.	.	.
.	8B-'</ 8d	.	.	.	8d/)	.	.
=8	=8	=8	=8	=8	=8	=8	=8
*	*^	*	*	*	*	*	*
4FF#X/ 4F#X	8d/L	4A\	.	1ryy	.	(8d/L	krwa-	.
.	8c/J	.	.	.	.	8c/J)	.	.
4GG/ 4G	4B-'</	2.ryy	.	.	.	4B-/	-wa	.
4GG/ 4D	4G'</ 4B-	.	.	.	.	4r	.	.
4GG/ 4D	4G'</ 4B-	.	.	.	.	4G/	niech	.
*	*v	*v	*	*	*	*	*	*
=9	=9	=9	=9	=9	=9	=9	=9
4GG'>\ 4G	4B-/ 4g	.	1ryy	.	2g/	dzień	.
4GG'>\ 4G	4B-/ 4g	.	.	.	.	.	.
4AA'>\ 4F	4c^>/ 4f	.	.	.	4.f/	co	.
4AA'>\ 4F	(<8c/L 8f	.	.	.	.	.	.
.	8e-/J)	.	.	.	8e-/	się	.
=10	=10	=10	=10	=10	=10	=10	=10
4BB-'>\ 4F	4B-'/ 4d	.	1ryy	.	4d/	zbli-	.
4BB-'>\ 4F	4B-'/ 4d	.	.	.	4d/	-ża	.
4BB-'>\ 4F	4B-'/ 4d	.	.	.	4r	.	.
4r	8.d/L	.	.	.	8.d/	bę-	.
.	16d/Jk	sf	.	.	16d/	-dzie	.
=11	=11	=11	=11	=11	=11	=11	=11
4DD'</	4A^^>/ 4c	.	1ryy	.	2f#X/	nam	.
4DD'</	8.d/L	.	.	.	.	.	.
.	16d/Jk	.	.	.	.	.	.
!	!	!LO:DY:b:rj	!	!	!	!	!
4DD'</ 4D	4G^^>/ 4B-	sf	.	.	(4.g/	dniem	.
4DD'</ 4D	8.d/L	.	.	.	.	.	.
.	.	.	.	.	8d/)	.	.
.	16d/Jk	.	.	.	.	.	.
!!LO:LB:g=original
=12	=12	=12	=12	=12	=12	=12	=12
*xywh-#2:375,1486,1481,234	*xywh-#2:375,1486,1481,234	*	*	*	*xywh-#2:393,1344,1418,154	*	*
4CC'/ 4C	4A/ 4c	.	1ryy	.	4e-/	swo-	.
4CC'/ 4C	4A/ 4c 4e-	.	.	.	2a/	-bo-	.
4CC'/ 4C	4A/ 4c 4e-	.	.	.	.	.	.
(<(<4CC#X'/ 4C#X	(<[<4G/ [<4B- 4en	sf	.	.	4g/	-dy	.
=13	=13	=13	=13	=13	=13	=13	=13
!	!	!LO:HP:t=cres	!	!	!	!	!
4DD'/)) 4D	4G/]) 4B-] 4d	<	1ryy	.	4.d/	i	.
4DD'/ 4D	4G/ 4B- 4d	.	.	.	.	.	.
.	.	.	.	.	8d/	dniem	.
!	!	!	!	!	!LO:TX:t=P:problem=obiegnik bez znaku, ale z odległości wychodzi sSsS	!	!
4DD'\ 4D	4F#X</ 4An< 4d	.	.	.	4f#XsSsS/	wie-	.
4DD'\ 4D	4F#</ 4A< 4d	.	.	.	(8.en/L	-cznej	.
.	.	.	.	.	16f#/Jk)	.	.
=14	=14	=14	=14	=14	=14	=14	=14
!	!	!LO:DY:b:rj	!	!	!	!	!
4GG'</	4G'</ 4B- 4d	p	1ryy	.	4g/	chwa-	.
4GG'</	4G'</ 4B- 4d	.	.	.	4g/	-ły	.
4GG'<^^>/	4G'<^^>/ 4B- 4d	.	.	.	4r	.	.
4r	4r	.	.	.	8.g/	pa-	.
.	.	.	.	.	16g/	-trzcie	.
=15	=15	=15	=15	=15	=15	=15	=15
!	!	!LO:DY:b:rj	!	!	!	!	!
4AA'\ 4F	4c'/ 4f	sf	1ryy	.	4fn/	jak	.
4AA'\ 4F	4c'/ 4f	.	.	.	8.c/	śmia-	.
.	.	.	.	.	16d/	-łym	.
!	!	!LO:HP:t=cres	!	!	!	!	!
4BB-'\ 4F	4B-'/ 4d	<	.	.	4.B-/	lo-	.
4BB-'\ 4F	4B-'/ 4d	.	.	.	.	.	.
.	.	.	.	.	8B-/	-tem	.
=16	=16	=16	=16	=16	=16	=16	=16
4FF'\ 4F	4A'/ 4c 4f	.	1ryy	.	8.f/	wzbił	.
.	.	.	.	.	16f/	się	.
4FF'\ 4F	4A'/ 4c 4f	.	.	.	8.g/	o-	.
.	.	.	.	.	16a/	-rzeł	.
4BB-'\ 4F	4.B-/ 4.d 4.f	.	.	.	4.b-^^/	bia-	.
4BB-'\ 4F	.	.	.	.	.	.	.
.	8f/	.	.	.	8a/	-ły	.
!!LO:LB:g=original
=17	=17	=17	=17	=17	=17	=17	=17
*xywh-#2:428,1837,1358,244	*xywh-#2:428,1837,1358,244	*	*	*	*xywh-#2:473,1696,1336,167	*	*
16BB-\LL	4.e-/ 4.g	sf	1ryy	.	4.g/	i	.
16B-\	.	.	.	.	.	.	.
16BB-\	.	.	.	.	.	.	.
16B-\JJ	.	.	.	.	.	.	.
*rep	*	*	*	*	*	*	*
16BB-\LL	.	.	.	.	.	.	.
16B-\	.	.	.	.	.	.	.
16BB-\	8e-/ 8g	.	.	.	8g/	swe	.
16B-\JJ	.	.	.	.	.	.	.
*Xrep	*	*	*	*	*	*	*
*rep	*	*	*	*	*	*	*
!	!	!LO:HP:t=cres	!	!	!	!	!LO:HP:a
16BB-\LL	8.c/L 8.f 8.a	<	.	.	4.a/	o-	>
16B-\	.	.	.	.	.	.	.
16BB-\	.	.	.	.	.	.	.
16B-\JJ	16c/K 16f 16a	.	.	.	.	.	.
*Xrep	*	*	*	*	*	*	*
*rep	*	*	*	*	*	*	*
16BB-\LL	8.c/ 8.f 8.g	.	.	.	.	.	.
16B-\	.	.	.	.	.	.	.
16BB-\	.	.	.	.	8a/	-czy	]
16B-\JJ	16c/Jk 16f 16a	.	.	.	.	.	.
*Xrep	*	*	*	*	*	*	*
=18	=18	=18	=18	=18	=18	=18	=18
*tremolo	*	*	*	*	*	*	*
!	!LO:TX:a:t=ten	!	!	!	!	!	!
16BB-\LL	2.d/ 2.f 2.b-	f	1ryy	.	4b-\	o-	.
16B-\	.	.	.	.	.	.	.
16BB-\	.	.	.	.	.	.	.
16B-\	.	.	.	.	.	.	.
16BB-\	.	.	.	.	2dd\	-bró-	.
16B-\	.	.	.	.	.	.	.
16BB-\	.	.	.	.	.	.	.
16B-\JJ	.	.	.	.	.	.	.
16BB-\LL	.	.	.	.	.	.	.
16B-\	.	.	.	.	.	.	.
16BB-\	.	.	.	.	.	.	.
16B-\	.	.	.	.	.	.	.
16BB-\	4d/ 4f	.	.	.	4f/	-cił	.
16B-\	.	.	.	.	.	.	.
16BB-\	.	.	.	.	.	.	.
16B-\JJ	.	.	.	.	.	.	.
=19	=19	=19	=19	=19	=19	=19	=19
16BB-\LL	2e-/ 2g	sf	1ryy	.	2g/	na	.
16B-\	.	.	.	.	.	.	.
16BB-\	.	.	.	.	.	.	.
16B-\	.	.	.	.	.	.	.
16BB-\	.	.	.	.	.	.	.
16B-\	.	.	.	.	.	.	.
16BB-\	.	.	.	.	.	.	.
16B-\JJ	.	.	.	.	.	.	.
16BB-\LL	4c'^^>/ 4f 4a	.	.	.	4a/	tę-	.
16B-\	.	.	.	.	.	.	.
16BB-\	.	.	.	.	.	.	.
16B-\	.	.	.	.	.	.	.
16BB-\	(<8c'/L 8f 8g	.	.	.	8.a/	-czę	.
16B-\	.	.	.	.	.	.	.
16BB-\	8c'/J) 8f 8a	.	.	.	.	.	.
16B-\JJ	.	.	.	.	16a/	pa-	.
*Xtremolo	*	*	*	*	*	*	*
=20	=20	=20	=20	=20	=20	=20	=20
4BB-/	8d/L 8f 8b-	sf >	1ryy	.	4b-/	-ry-	.
.	16d'/L 16dd	.	.	.	.	.	.
.	16d'/JJ 16dd	.	.	.	.	.	.
4BB-\ 4B-	8d'/L 8dd	.	.	.	4b-/	-ża	.
.	8d'/J 8dd	.	.	.	.	.	.
4r	8d'/L 8dd	.	.	.	4.r	.	.
.	8d'/ 8dd	.	.	.	.	.	.
4BBB-/ 4BB-	8d'/ 8dd	.	.	.	.	.	.
.	8d'/J 8dd	]]	.	.	8b-/	słoń-	.
=21	=21	=21	=21	=21	=21	=21	=21
(>4BB-\ 4A-X	8r	p	1ryy	.	4.d/	-ce	.
.	8B-/ 8d	.	.	.	.	.	.
4BB-\ 4A-	8r	.	.	.	.	.	.
.	8B-/ 8d	.	.	.	8d/	lip-	.
4BB-\ 4G	8r	.	.	.	4e-/	-co-	.
.	8B-/ 8e-	<	.	.	.	.	.
4BB-\ 4G	8r	.	.	.	(<8d/L	-we	.
.	8B-/ 8e-	[[	.	.	8e-/J)	.	.
!!LO:LB:g=original
=22	=22	=22	=22	=22	=22	=22	=22
*xywh-#2:412,2201,1397,689	*xywh-#2:412,2201,1397,689	*	*	*	*xywh-#2:425,2066,1391,151	*	*
4BB-\ 4F	8r	<	1ryy	.	4f/	w_wol-	.
.	8B-/ 8d	.	.	.	.	.	.
4BB-\ 4En	8r	.	.	.	4g/	-ność	.
.	8B-/ 8d-X	.	.	.	.	.	.
4BB-\ 4E-X	8r	.	.	.	4a/	dla	.
.	8c/ 8d-	.	.	.	.	.	.
4BB-\) 4D	8r	.	.	.	4b-/	na-	.
.	8B-/ 8f	[	.	.	.	.	.
=23	=23	=23	=23	=23	=23	=23	=23
*	*tremolo	*	*	*	*	*	*
!	!	!LO:DY:rj	!	!	!	!	!
2.EE-/ 2.E-	16A/LL 16e-	f	1ryy	.	2.cc\	-ro-	.
.	16G/	.	.	.	.	.	.
.	16A/ 16e-	.	.	.	.	.	.
.	16G/	.	.	.	.	.	.
.	16A/ 16e-	.	.	.	.	.	.
.	16G/	.	.	.	.	.	.
.	16A/ 16e-	.	.	.	.	.	.
.	16G/	.	.	.	.	.	.
.	16A/ 16e-	.	.	.	.	.	.
.	16G/	.	.	.	.	.	.
.	16A/ 16e-	.	.	.	.	.	.
.	16G/JJ	.	.	.	.	.	.
*	*Xtremolo	*	*	*	*	*	*
4EEn/ 4En	16d-X/LL	sf	.	.	4b-\	-dów	.
.	16B-/	.	.	.	.	.	.
.	16d-/	.	.	.	.	.	.
.	16B-/JJ	.	.	.	.	.	.
=24	=24	=24	=24	=24	=24	=24	=24
4FF'>\ 4F	8r	.	1ryy	.	4a/	żyz-	.
.	8A/ 8c 8f	.	.	.	.	.	.
4FF'>\ 4F	8r	.	.	.	4a/	-ne	.
.	8A/ 8c 8f	.	.	.	.	.	.
4FF^^>\ 4F	8r	.	.	.	2r	.	.
.	8f/L	.	.	.	.	.	.
.	16qqa/	.	.	.	.	.	.
4r	8g/	.	.	.	.	.	.
.	8f/J	.	.	.	.	.	.
=25	=25	=25	=25	=25	=25	=25	=25
4BB-'\ 4F	8r	p	1ryy	.	4f/	o-	.
*	*tremolo	*	*	*	*	*	*
.	8B-/L 8d 8f	.	.	.	.	.	.
4r	8B-/ 8d 8f	.	.	.	4b-/	-ży-	.
.	8B-/J 8d 8f	.	.	.	.	.	.
4FF/ 4F	8r	.	.	.	4a/	-wi-	.
.	8A/L 8c 8f	.	.	.	.	.	.
4r	8A/ 8c 8f	.	.	.	4cc\	-ło	.
.	8A/J 8c 8f	.	.	.	.	.	.
=26	=26	=26	=26	=26	=26	=26	=26
4BB-'\ 4F	8r	.	1ryy	.	4f/	lot	.
.	8B-/L 8d 8f	.	.	.	.	.	.
4r	8B-/ 8d 8f	.	.	.	2dd\	je-	.
.	8B-/J 8d 8f	.	.	.	.	.	.
4BB-'\ 4F	8r	.	.	.	.	.	.
.	8B-/L 8d 8f	.	.	.	.	.	.
4r	8B-/ 8d 8f	.	.	.	(8cc\L	-go	.
.	8B-/J 8d 8f	.	.	.	8b-\J)	.	.
=27	=27	=27	=27	=27	=27	=27	=27
4EE-/ 4E-	8r	sf	1ryy	.	4b-\	za-	.
.	8G/L 8c 8e-	.	.	.	.	.	.
4r	8G/ 8c 8e-	.	.	.	(8.a/L	-wo-	.
.	8G/J 8c 8e-	.	.	.	.	.	.
.	.	.	.	.	16g/Jk)	.	.
4EE-/ 4E-	8r	.	.	.	4g/	-łał	.
.	8G/L 8c 8e-	>	.	.	.	.	.
4r	8G/ 8c 8e-	.	.	.	(8.f/L	w_za-	.
.	8G/J 8c 8e-	]	.	.	.	.	.
.	.	.	.	.	16e-/Jk)	.	.
!!LO:PB:g=original
=28	=28	=28	=28	=28	=28	=28	=28
*xywh-#3:23,718,1378,267	*xywh-#3:23,718,1378,267	*	*xywh-#3:39,586,1401,147	*	*xywh-#3:31,431,1436,170	*	*
4FF'/ 4F	8r	.	1r	.	2d/	-pa-	.
.	8B-/L 8d	.	.	.	.	.	.
4r	8B-/ 8d	.	.	.	.	.	.
.	8B-/J 8d	.	.	.	.	.	.
4FF'/ 4F	8r	.	.	.	4c/	-le	.
.	8A/L 8c	.	.	.	.	.	.
4r	8A/ 8c	.	.	.	8.f/	błyś-	.
.	8A/J 8c	.	.	.	.	.	.
.	.	.	.	.	16f/	-nij	.
=29	=29	=29	=29	=29	=29	=29	=29
2BBn/	8r	sf	1r	.	4f/	słoń-	.
.	8A/L 8d 8f	.	.	.	.	.	.
.	8A/ 8d 8f	.	.	.	8.f/	-ce	.
.	8A/J 8d 8f	.	.	.	.	.	.
*	*Xtremolo	*	*	*	*	*	*
.	.	.	.	.	16f/	swo-	.
8C'/	8r	.	.	.	4.en/	-bo-	.
8r	8G/ 8c 8en	>	.	.	.	.	.
8C'/	8r	.	.	.	.	.	.
8r	8G/ 8c 8e	]]	.	.	8e/	-dy	.
=30	=30	=30	=30	=30	=30	=30	=30
2AA\	8r	p	1r	.	8.e-X/	na	.
*	*tremolo	*	*	*	*	*	*
.	8F</L 8c 8e-X	.	.	.	.	.	.
.	.	.	.	.	16e-/	mo-	.
.	8F</ 8c 8e-	.	.	.	8.e-/	-ją	.
.	8F</J 8c 8e-	.	.	.	.	.	.
.	.	.	.	.	16e-/	oj-	.
*	*Xtremolo	*	*	*	*	*	*
!	!	!LO:HP:b:t=dim	!	!	!	!	!
8BB-\	8r	>	.	.	4.d/	-czy-	.
8rBB	8F</ 8B- 8d	.	.	.	.	.	.
8BB-\	8r	.	.	.	.	.	.
8rBB	8F</ 8B- 8d	.	.	.	8d/	-znę	.
=31	=31	=31	=31	=31	=31	=31	=31
!	!	!	!LO:TX:b:t=CORO	!	!	!	!
2FF#X/ 2F#X	8r	.	1r	.	4c/	al-	.
*	*tremolo	*	*	*	*	*	*
.	8A/L 8c	.	.	.	.	.	.
.	8A/ 8c	.	.	.	(<8.c/L	-bo	.
.	8A/J 8c	.	.	.	.	.	.
.	.	.	.	.	16c/Jk)	.	.
*	*Xtremolo	*	*	*	*	*	*
8GG/ 8G	8r	.	.	.	4.B-/	w wie-	.
8r	8B-'/ 8g	.	.	.	.	.	.
8GG/ 8G	8r	.	.	.	.	.	.
8r	8B-'/ 8g	.	.	.	8B-/	-cznej	.
=32	=32	=32	=32	=32	=32	=32	=32
4EE-/ 4E-	8r	sf	2r	.	4c#X/	zgaś-	.
.	8B-/L	<	.	.	.	.	.
4EE-/ 4E-	8c#X/ 8g	.	.	.	8.c#/L	-nij	.
.	8B-/J	.	.	.	.	.	.
.	.	.	.	.	16c#/Jk	.	.
4DD/ 4D	4A^</ 4d 4f#X	[	4r	.	4d/	chwa-	.
8.DD;</ 8.D	8.A^<;>/ 8.d 8.f#	sf	8.r;>	.	8.d;>/	-le	.
16BB-\ 16B-	16d'/ 16fn	.	16b-\ 16dd	Po-	16f/	Po-	.
!!LO:LB:g=original
=33	=33	=33	=33	=33	=33	=33	=33
*	*	*	*^	*	*	*	*
*xywh-#3:8,1214,1393,236	*xywh-#3:8,1214,1393,236	*	*xywh-#3:23,1070,1327,158	*xywh-#3:23,1070,1327,158	*	*xywh-#3:39,950,1397,143	*	*
!	!LO:TX:b:t=piu animato	!LO:DY:rj	!	!	!	!	!	!
4.BB-^^<\ 4.B-	4.d'^^>/ 4.f	f	4.dd/	4.b-\	-la-	4.f/	-la-	.
8BB-\ 8B-	8d'/ 8f	.	8dd/	8b-\	-cy	8f/	-cy	.
8FF'\L 8F	8c'/L 8e- 8g	>	4.cc/	4.f\	na	4.g/	na	.
8FF'\ 8F	8c'/ 8e- 8f	.	.	.	.	.	.	.
8FF'\ 8F	8c'/ 8e- 8g	.	.	.	.	.	.	.
8FF'\J 8F	8c'/J 8f 8a	]]	8cc/ 8ee-	8f\	bag-	8a/	bag-	.
=34	=34	=34	=34	=34	=34	=34	=34	=34
4BB-'\ 4B-	4d'/ 4f 4b-	sf	4dd/ 4ff	4b-\	-ne-	4b-/	-ne-	.
4BB-'\ 4B-	4d'/ 4f	.	4dd/ 4ff	4b-\	-ty	4f/	-ty	.
4.r	4.r	.	4.r	4.ryy	.	4.r	.	.
8FF\ 8F	8A/ 8c 8f	.	8cc/ 8ee-	8f\	ten	8f/	ten	.
=35	=35	=35	=35	=35	=35	=35	=35	=35
4.FF'>\ 4.F	4.A/ 4.c 4.f	.	2ee-/ 2ff	2f\	o-	2cc\	o-	.
8FF^>\ 8F	8A'<^>/ 8c 8f	.	.	.	.	.	.	.
4.FF'>\ 4.F	4.B-/ 4.d 4.f	.	4.dd/ 4.ff	4.f\	-krzyk	4.b-\	-krzyk	.
8FF^>\ 8F	8B-'<^>/ 8d 8f	.	8dd/ 8ff	8f\	się	8b-\	się	.
=36	=36	=36	=36	=36	=36	=36	=36	=36
4FF'\ 4F	4A'/ 4c 4f	.	4cc/ 4ff	4f\	wzno-	4a/	wzno-	.
!	!	!LO:DY:rj	!	!	!	!	!	!
4FF\ 4F	4A/ 4c 4f	sf	4cc/ 4ff	4f\	-si	4a/	-si	.
2r	2r	.	2r	2ryy	.	2r	.	.
=37	=37	=37	=37	=37	=37	=37	=37	=37
*	*tremolo	*	*	*	*	*	*	*
4EE-/ 4E-	16c/LL 16e- 16g	sf	4cc/ 4ee-	4e-\	gdy	4g/	gdy	.
.	16G/	.	.	.	.	.	.	.
.	16c/ 16e- 16g	.	.	.	.	.	.	.
.	16G/	.	.	.	.	.	.	.
8EE-'/L 8E-	16c/ 16e- 16g	.	4cc^>/ 4ee-	4e-\	bę-	4cc^>\	bę-	.
.	16G/	.	.	.	.	.	.	.
8EE-'/J 8E-	16c/ 16e- 16g	.	.	.	.	.	.	.
.	16G/JJ	.	.	.	.	.	.	.
4EE-'/ 4E-	16c/LL 16e- 16g	.	4cc/ 4ee-	4e-\	-bny	4g/	-bny	.
.	16G/	.	.	.	.	.	.	.
.	16c/ 16e- 16g	.	.	.	.	.	.	.
.	16G/	.	.	.	.	.	.	.
8EE-'/L 8E-	16c/ 16e- 16g	.	4cc^>/ 4ee-	4e-\	do	4ee-^>\	do	.
.	16G/	.	.	.	.	.	.	.
8EE-'/J 8E-	16c/ 16e- 16g	.	.	.	.	.	.	.
.	16G/JJ	.	.	.	.	.	.	.
!!LO:LB:g=original
=38	=38	=38	=38	=38	=38	=38	=38	=38
*xywh-#3:10,1712,1344,246	*xywh-#3:10,1712,1344,246	*	*xywh-#3:28,1572,1318,143	*xywh-#3:28,1572,1318,143	*	*xywh-#3:32,1445,1314,147	*	*
!	!	!LO:HP:b:t=cres	!	!	!	!	!	!
4EE-'/ 4E-	16c/LL 16e- 16g	<	4cc/ 4ee-	4e-\	wal-	4g/	wal-	.
.	16G/	.	.	.	.	.	.	.
.	16c/ 16e- 16g	.	.	.	.	.	.	.
.	16G/	.	.	.	.	.	.	.
8EE-'/L 8E-	16c/ 16e- 16g	.	4cc^>/ 4ee-	4e-\	-ki	4gg^>\	-ki	.
.	16G/	.	.	.	.	.	.	.
8EE-'/J 8E-	16c/ 16e- 16g	.	.	.	.	.	.	.
.	16G/JJ	.	.	.	.	.	.	.
4EE-'/ 4E-	16c/LL 16e- 16g	.	4cc^>/ 4ee-	4e-\	bi-	(8ff^>\L	bi-	.
.	16G/	.	.	.	.	.	.	.
.	16c/ 16e- 16g	.	.	.	.	8ee-\J)	.	.
.	16G/	.	.	.	.	.	.	.
8EE-'/L 8E-	16c/ 16e- 16g	.	4cc^>/ 4ee-	4e-\	-ją	(8dd^>\L	-ją	.
.	16G/	.	.	.	.	.	.	.
8EE-'/J 8E-	16c/ 16e- 16g	.	.	.	.	8cc\J)	.	.
.	16G/JJ	.	.	.	.	.	.	.
=39	=39	=39	=39	=39	=39	=39	=39	=39
4FF'>\ 4D	16B-/LL 16d	sf	4b-/ 4dd	4f\	każ-	4b-\	każ-	.
.	16F</	.	.	.	.	.	.	.
.	16B-/ 16d	.	.	.	.	.	.	.
.	16F</	.	.	.	.	.	.	.
8FF'>\L 8D	16B-/ 16d	.	8b-/ 8dd	8f\	-dy	8b-\	-dy	.
.	16F</	.	.	.	.	.	.	.
8FF'>\J 8D	16B-/ 16d	.	8b-/ 8dd	8f\	z_za-	8a\	z_za-	.
.	16F</JJ	.	.	.	.	.	.	.
4FF'>\ 4BB-	16B-/LL 16d	.	4b-/ 4dd	4f\	-pa-	(8b-\L	-pa-	.
.	16F</	.	.	.	.	.	.	.
.	16B-/ 16d	.	.	.	.	8cc\J)	.	.
.	16F</	.	.	.	.	.	.	.
8FF'>\L 8BB-	16B-/ 16d	.	8b-/ 8dd	8f\	-łem	8dd\	-łem	.
.	16F</	.	.	.	.	.	.	.
8FF'>\J 8BB-	16B-/ 16d	.	8b-/ 8dd	8f\	go	8ee-\	go	.
.	16F</JJ	.	.	.	.	.	.	.
*	*Xtremolo	*	*	*	*	*	*	*
=40	=40	=40	=40	=40	=40	=40	=40	=40
!	!	!LO:DY:a	!	!	!	!	!	!
4FF\ 4C	4F</ 4A< 4c	sf	4a/ 4cc	4e-\	gło-	4cc\	gło-	.
4FF\ 4C	4F</ 4A< 4c 4f	.	4a^>/ 4cc	4f\	-si	4ff^>\	-si	.
4r	4r	f	4r	4r	.	4r	.	.
8.BB-\L 8.B-	8.d/L 8.f	>	8.b-/ 8.dd	8.b-\	na	8.f/	na	.
16BB-\Jk 16B-	16d/Jk 16f	]]	16b-/ 16dd	16b-\	bag-	16f/	ba-	.
=41	=41	=41	=41	=41	=41	=41	=41	=41
4.BB-^^>\ 4.B-	4.d^^>/ 4.f	.	4.dd/	4.b-\	-ne-	4.f/	-gne-	.
8BB-\ 8B-	8d'/ 8f	.	8dd/	8b-\	-ty!	8f/	-ty!	.
8FF'/L 8F	8c'/L 8e- 8g	.	4.cc/ 4.ee-	4.f\	na	(8g/L	na	.
8FF'/ 8F	8c'/ 8e- 8f	.	.	.	.	8f/	.	.
8FF'/ 8F	8c'/ 8e- 8g	.	.	.	.	8.g/J)	.	.
8FF'/J 8F	8c'/J 8e- 8a	.	8cc/ 8ee-	8f\	bag-	.	.	.
.	.	.	.	.	.	16a/	ba-	.
=42	=42	=42	=42	=42	=42	=42	=42	=42
4BB-'\ 4B-	4d'/ 4f 4b-	.	4dd/	4b-\	-ne-	4b-/	-gne-	.
!	!	!LO:DY:b:rj	!	!	!	!	!	!
4BB-'\ 4B-	4d'/ 4f	sf	4dd/	4b-\	-ty!	4f/	-ty!	.
4r	4r	.	4r	4r	.	4r	.	.
8GG\L	4d'^^>/ 4f 4g 4bn	sf	4dd/ 4ff	4g\	oj-	4bn/	oj-	.
8G\J	.	.	.	.	.	.	.	.
!!LO:LB:g=original
=43	=43	=43	=43	=43	=43	=43	=43	=43
*xywh-#3:4,2211,1433,291	*xywh-#3:4,2211,1433,291	*	*xywh-#3:13,2062,1435,169	*xywh-#3:13,2062,1435,169	*	*xywh-#3:11,1938,1349,145	*	*
!	!	!LO:DY:b:rj	!	!	!	!	!	!
8CC/L	4.c/ 4.en 4.g 4.cc	f	4.een/ 4.gg	4.cc\	-czy-	4.cc\	-czy-	.
8C/	.	.	.	.	.	.	.	.
8CC/	.	.	.	.	.	.	.	.
8C/J	8c/ 8e 8g 8cc	.	8ee/ 8gg	8cc\	-zna	8cc\	-zna	.
*tremolo	*	*	*	*	*	*	*	*
8FF/L	4.c/ 4.e-X 4.f 4.a	.	8cc/ 8ee-X	8f\	i	8a/	i	.
8F/	.	.	8cc/ 8ee-	8f\	wol-	8a/	wol-	.
8FF/	.	.	8cc/ 8ee-	8f\	-ność	8g/	-ność	.
8F/J	8c/ 8e- 8f 8a	.	8cc/ 8ee-	8f\	niech	8a/	niech	.
=44	=44	=44	=44	=44	=44	=44	=44	=44
8BB-\L	4d/ 4f 4b-	.	4dd/ 4ff	4b-\	ży-	4b-X\	ży-	.
8B-\	.	.	.	.	.	.	.	.
!	!	!LO:DY:b:rj	!	!	!	!	!	!
8BB-\	4d/ 4f 4b-	sf	4dd/ 4ff	4b-\	-ją!	4dd^>\	-ją!	.
8B-\J	.	.	.	.	.	.	.	.
*Xtremolo	*	*	*	*	*	*	*	*
8BB-\L	4r	.	4r	4r	.	4r	.	.
8B-\J	.	.	.	.	.	.	.	.
8GG\L	4d/ 4f 4g 4bn	sf	4dd/ 4ff	4g\	oj-	4bn\	oj-	.
8G\J	.	.	.	.	.	.	.	.
=45	=45	=45	=45	=45	=45	=45	=45	=45
*tremolo	*	*	*	*	*	*	*	*
8CC/L	4.c/ 4.en 4.g 4.cc	sf	4.een/ 4.gg	4.cc\	-czy-	4.cc\	-czy-	.
8C/	.	.	.	.	.	.	.	.
8CC/	.	.	.	.	.	.	.	.
8C/J	8c/ 8e 8g 8cc	.	8ee/ 8gg	8cc\	-zna	8cc\	-zna	.
8FF/L	4c/ 4e-X 4f 4a	.	8cc/ 8ee-X	8f\	i	8a/	i	.
8F/	.	.	8cc/ 8ee-	8f\	wol-	8a/	wol-	.
!	!	!LO:DY:b:rj	!	!	!	!	!	!
8FF/	8.c/L 8.e- 8.f 8.a	f <	8cc/ 8ee-	8f\	-ność	8g/	-ność	.
8F/J	.	.	8cc/ 8ee-	8f\	niech	8a/	niech	.
.	16c/Jk 16e- 16f 16a	[[	.	.	.	.	.	.
*Xtremolo	*	*	*	*	*	*	*	*
=46	=46	=46	=46	=46	=46	=46	=46	=46
8BB-\L	2d/ 2f 2b-	.	4dd/ 4ff	4b-X\	ży-	4b-X\	ży-	.
8D\	.	.	.	.	.	.	.	.
8F\	.	.	4dd/ 4ff	4b-\	-ją!	4b-\	-ją!	.
8D\J	.	.	.	.	.	.	.	.
4BB-/	2d/ 2f 2b-	.	2r	2ryy	.	2r	.	.
8FF/L	.	.	.	.	.	.	.	.
8DD/J	.	.	.	.	.	.	.	.
*	*	*	*v	*v	*	*	*	*
=47	=47	=47	=47	=47	=47	=47	=47
2BBB-\	2D</ 2F< 2B-	.	1r	.	1r	.	.
2rGG	2re	.	.	.	.	.	.
==	==	==	==	==	==	==	==
*-	*-	*-	*-	*-	*-	*-	*-
!!!system-decoration: (s1),(s2){(s3,s4)}
!!!RDF**kern: < = below
!!!RDF**kern: > = above
!!!ENC: Berenika Jozajtis
!!!END: 2022-02-07
!!!ENC: Marta Chmielewska
!!!END: 2022-02-14
!!!IIIF: https://polona.pl/iiif/item/NDUyMTgzMjA/manifest.json
!!!ENC-iiif: Jan Barakat
!!!END-iiif: 2022-08-30
!!!YEC: Copyright 2022 Narodowy Instytut Fryderyka Chopina (https://polishscores.org)
!!!YEM: License CC-BY-4.0 (https://creativecommons.org/licenses/by/4.0)
